!!!OTL: Amampondo
!!!XEN: Pondo Man
!!!CNT: African -- sub-Saharan -- Pondo
**kern
*k[f#]
*M4/4
*MM184
=1
4.g
8b
4a
4g
=2
4e
2d
4B
=3
4r
8d
4d
4e
8A
=4
4A
2G
4r
=5
4.g
8b
4a
4g
=6
4e
2d
8B
8B
=7
4B
8d
4d
4e
8A
=8
4A
2G
4r
!! Segno
=9
4r
8d
4fn
4e
8e
=10
4e
2d
8r
8c
=11
8B
[8G
4.G]
[8A
8A]
8G
=12
4A
4G
2r
=13
4d
4.g
[8e
8e]
8e
=14
4e
2d
8r
8c
=15
8B
[8G
4.G]
[8A
8A]
8G
=16
4A
4G
2r
!! Repeat from beginning.
=17
4.g
8b
4a
4g
=18
4e
2d
4B
=19
4r
8d
4d
4e
8A
=20
4A
2G
4r
=21
4.g
8b
4a
4g
=22
4e
2d
8B
8B
=23
4B
8d
4d
4e
8A
=24
4A
2G
4r
=25
4r
8d
4fn
4e
8e
=26
4e
2d
8r
8c
=27
8B
[8G
4.G]
[8A
8A]
8G
=28
4A
4G
2r
=29
4d
4.g
[8e
8e]
8e
=30
4e
2d
8r
8c
=31
8B
[8G
4.G]
[8A
8A]
8G
=32
4A
4G
2r
!! Continuing.
=33
4.dd
8b
4a
4g
=34
4e
2d
4B
=35
4r
8d
4d
4e
8A
=36
4A
2G
4r
!! Repeat.
=37
4.dd
8b
4a
4g
=38
4e
2d
4B
=39
4r
8d
4d
4e
8A
=40
4A
2G
4r
!! Dal Segno al Fine.
!! Segno
=41
4r
8d
4fn
4e
8e
=42
4e
2d
8r
8c
=43
8B
[8G
4.G]
[8A
8A]
8G
=44
4A
4G
2r
=45
4d
4.g
[8e
8e]
8e
=46
4e
2d
8r
8c
=47
8B
[8G
4.G]
[8A
8A]
8G
=48
4A
4G
2r
==
*-
!!!OPR: Miriam Makeba, "The World of African Song"
!!!PPP: Chicago
!!!PPR: Quadrangle Press (12 East Delaware Place)
!!!PDT: 1971///
!!!PPG: 65
!!!ENC: David Huron
!!!EMD: 1998/9/29/ Paul von Hippel updated this file in the following ways:
!!!EMD:  (1) changed the representation of slurs from curly braces to parentheses 
!!!EMD:  (2) changed freeform comments into reference records and tandem interpretations
!!!EMD:  (3) changed final barline from triple (===) to double (==)
!!!EMD:  (4) added key signature from printed source
!!!EEV: Version 2.0
